public/assets/techs/github-actions.svg

<svg width="20" height="20" viewBox="0 0 20 20" fill="none" xmlns="http://www.w3.org/2000/svg">
<g clip-path="url(#clip0_310_75)">
<path d="M4.18781 0C6.50063 0 8.37562 1.87438 8.37562 4.18677C8.37562 6.45943 6.56398 8.30783 4.30586 8.37053C4.30586 8.56283 4.31435 8.92612 4.42316 9.14548C4.57414 9.44972 5.47973 10.0162 6.36783 10.0162H6.68689C6.88741 8.58874 8.11318 7.49023 9.59624 7.49023C11.0733 7.49023 12.2955 8.57979 12.5034 9.99878H14.1541C14.362 8.57979 15.5842 7.49023 17.0612 7.49023C18.6842 7.49023 20 8.80559 20 10.4283C20 12.0509 18.6842 13.3662 17.0612 13.3662C15.5842 13.3662 14.362 12.2766 14.1541 10.8576H12.5034C12.2956 12.2766 11.0734 13.3662 9.59624 13.3662C8.12199 13.3662 6.90144 12.2808 6.69012 10.8657L6.33734 10.8762C5.75648 10.8718 5.14285 10.7167 4.64998 10.3819C4.51561 10.2905 4.38324 10.1946 4.24515 10.1037L4.24511 10.2945C4.24436 10.3562 4.23323 11.2833 4.23234 12.3127L4.23231 12.5307C4.23273 13.2057 4.23806 13.9013 4.25396 14.4087C4.28882 15.5217 5.19417 16.4201 6.19323 16.6303C6.32309 16.6576 6.54637 16.6611 6.68704 16.6489C6.88791 15.222 8.11354 14.1239 9.59624 14.1239C11.2193 14.1239 12.535 15.4394 12.535 17.062C12.535 18.6846 11.2193 20 9.59624 20C8.12993 20 6.91475 18.9263 6.6937 17.5224H6.43949C4.53042 17.4182 3.34352 15.6672 3.36421 14.2471C3.39034 12.4598 3.37065 10.6718 3.37036 8.8841V8.29316C1.44891 7.91299 0 6.21924 0 4.18677C0 1.87438 1.87492 0 4.18781 0ZM9.59624 14.9828C8.44771 14.9828 7.51658 15.9136 7.51658 17.062C7.51658 18.2103 8.44771 19.1412 9.59624 19.1412C10.7448 19.1412 11.676 18.2103 11.676 17.062C11.676 15.9136 10.7448 14.9828 9.59624 14.9828ZM9.59624 8.34905C8.44771 8.34905 7.51658 9.27995 7.51658 10.4283C7.51658 11.5765 8.44771 12.5074 9.59624 12.5074C10.7448 12.5074 11.676 11.5765 11.676 10.4283C11.676 9.27995 10.7448 8.34905 9.59624 8.34905ZM17.0612 8.34905C15.9126 8.34905 14.9815 9.27995 14.9815 10.4283C14.9815 11.5765 15.9126 12.5074 17.0612 12.5074C18.2098 12.5074 19.1409 11.5765 19.1409 10.4283C19.1409 9.27995 18.2098 8.34905 17.0612 8.34905ZM18.2456 9.55285C18.4093 9.71609 18.4138 9.97839 18.2589 10.147L18.2464 10.1602L16.9722 11.4371C16.8099 11.5999 16.5492 11.6053 16.3803 11.4526L16.3668 11.4398L15.743 10.8258C15.574 10.6594 15.5719 10.3875 15.7383 10.2185C15.9005 10.0538 16.1628 10.0476 16.3326 10.2013L16.3457 10.2139L16.6654 10.5285L17.6382 9.55363C17.8057 9.38566 18.0777 9.38538 18.2456 9.55285ZM10.7464 9.54656C10.9101 9.7098 10.9146 9.9721 10.7597 10.1408L10.7472 10.1539L9.47304 11.4308C9.31068 11.5936 9.05004 11.599 8.88109 11.4463L8.86763 11.4335L8.24383 10.8195C8.07481 10.6531 8.07267 10.3812 8.2391 10.2122C8.40125 10.0475 8.66361 10.0413 8.83334 10.1951L8.84652 10.2076L9.16622 10.5222L10.139 9.54734C10.3065 9.37944 10.5785 9.37908 10.7464 9.54656ZM4.18781 0.858824C2.3494 0.858824 0.859038 2.34874 0.859038 4.18677C0.859038 6.02472 2.3494 7.51471 4.18781 7.51471C6.02622 7.51471 7.51658 6.02472 7.51658 4.18677C7.51658 2.34874 6.02622 0.858824 4.18781 0.858824ZM3.84145 2.19769C4.54178 2.61844 5.23266 3.05365 5.91417 3.50324C6.48507 3.87984 6.48364 4.56282 5.90637 4.94027C5.21269 5.39416 4.508 5.82937 3.79242 6.2459C3.20999 6.58492 2.55805 6.19508 2.54223 5.5159C2.53206 5.07818 2.54037 4.64004 2.5398 4.20204C2.53929 3.77592 2.53092 3.34958 2.54123 2.92368C2.55862 2.20119 3.22373 1.82474 3.84145 2.19769ZM3.37979 2.89076V3.19299C3.37972 3.34264 3.37972 3.49029 3.37965 3.63629L3.37958 3.92614V4.35434C3.37965 4.68484 3.37979 5.01012 3.38036 5.3354C3.38065 5.48848 3.46033 5.48226 3.56341 5.41842C4.15758 5.05013 4.75203 4.68226 5.34677 4.31476C5.44506 4.25414 5.44785 4.1908 5.35143 4.12997C4.71445 3.72854 4.07661 3.32847 3.37979 2.89076Z" fill="#EEEEEE"/>
<path d="M10.4084 17.4906C10.6455 17.4906 10.8379 17.2983 10.8379 17.0611C10.8379 16.824 10.6455 16.6317 10.4084 16.6317C10.1712 16.6317 9.97885 16.824 9.97885 17.0611C9.97885 17.2983 10.1712 17.4906 10.4084 17.4906Z" fill="#EEEEEE"/>
<path d="M8.76398 17.4906C9.00114 17.4906 9.1935 17.2983 9.1935 17.0611C9.1935 16.824 9.00114 16.6317 8.76398 16.6317C8.52681 16.6317 8.33446 16.824 8.33446 17.0611C8.33446 17.2983 8.52681 17.4906 8.76398 17.4906Z" fill="#EEEEEE"/>
<path d="M17.0612 19.1412C15.9126 19.1412 14.9816 18.2103 14.9816 17.062C14.9816 15.9136 15.9126 14.9828 17.0612 14.9828C18.2098 14.9828 19.141 15.9136 19.141 17.062C19.141 18.2103 18.2098 19.1412 17.0612 19.1412ZM17.0612 14.1239C15.5842 14.1239 14.362 15.2136 14.1541 16.6326H13.6735C13.4637 16.6326 13.2934 16.8249 13.2934 17.062C13.2934 17.2991 13.4637 17.4914 13.6735 17.4914H14.1541C14.362 18.9104 15.5842 20 17.0612 20C18.6842 20 20 18.6846 20 17.062C20 15.4394 18.6842 14.1239 17.0612 14.1239Z" fill="#EEEEEE"/>
</g>
<defs>
<clipPath id="clip0_310_75">
<rect width="20" height="20" fill="white"/>
</clipPath>
</defs>
</svg>

<svg xmlns="http://www.w3.org/2000/svg" width="20" height="20" fill="none" xmlns:v="https://vecta.io/nano"><g clip-path="url(#A)" fill="#4a7ebf"><path d="M4.188 0a4.19 4.19 0 0 1 4.188 4.187 4.19 4.19 0 0 1-4.07 4.184c0 .192.008.556.117.775.151.304 1.057.871 1.945.871h.319A2.94 2.94 0 0 1 12.504 10h1.651a2.94 2.94 0 0 1 5.846.43 2.94 2.94 0 0 1-5.846.429h-1.651a2.94 2.94 0 0 1-5.813.008l-.353.011c-.581-.004-1.194-.16-1.687-.494l-.405-.278v.191l-.013 2.018v.218l.022 1.878c.035 1.113.94 2.011 1.939 2.222a2.05 2.05 0 0 0 .494.019 2.94 2.94 0 0 1 5.848.413 2.94 2.94 0 0 1-5.841.46h-.254c-1.909-.104-3.096-1.855-3.075-3.275l.006-5.363v-.591A4.19 4.19 0 0 1 0 4.187 4.19 4.19 0 0 1 4.188 0zm5.408 14.983a2.08 2.08 0 0 0-2.08 2.079 2.08 2.08 0 1 0 4.16 0 2.08 2.08 0 0 0-2.08-2.079zm0-6.634a2.08 2.08 0 0 0-2.08 2.079 2.08 2.08 0 1 0 4.16 0 2.08 2.08 0 0 0-2.08-2.079zm7.465 0a2.08 2.08 0 0 0-2.08 2.079 2.08 2.08 0 0 0 4.16 0 2.08 2.08 0 0 0-2.08-2.079zm1.184 1.204a.43.43 0 0 1 .013.594l-.012.013-1.274 1.277a.43.43 0 0 1-.592.016l-.013-.013-.624-.614a.43.43 0 0 1-.005-.607.43.43 0 0 1 .594-.017l.013.013.32.315.973-.975a.43.43 0 0 1 .607-.001zm-7.499-.006a.43.43 0 0 1 .013.594l-.013.013-1.274 1.277a.43.43 0 0 1-.592.016l-.013-.013-.624-.614a.43.43 0 0 1-.005-.607.43.43 0 0 1 .594-.017l.013.012.32.315.973-.975a.43.43 0 0 1 .607-.001zM4.188.859A3.33 3.33 0 0 0 .859 4.187a3.33 3.33 0 0 0 3.329 3.328 3.33 3.33 0 0 0 3.329-3.328A3.33 3.33 0 0 0 4.188.859zm-.346 1.339l2.073 1.306c.571.377.569 1.06-.008 1.437L3.792 6.246c-.582.339-1.234-.051-1.25-.73L2.54 4.202l.001-1.278c.017-.722.683-1.099 1.3-.726zm-.462.693v.302.443.29.428.981c0 .153.08.147.183.083l1.783-1.104c.098-.061.101-.124.005-.185L3.38 2.891zm7.028 14.6a.43.43 0 0 0 .43-.43.43.43 0 0 0-.43-.429.43.43 0 0 0-.429.429.43.43 0 0 0 .429.43zm-1.644 0a.43.43 0 0 0 .43-.43.43.43 0 0 0-.86 0 .43.43 0 0 0 .43.43zm8.297 1.65a2.08 2.08 0 0 1-2.08-2.079 2.08 2.08 0 0 1 4.16 0 2.08 2.08 0 0 1-2.08 2.079zm0-5.017a2.94 2.94 0 0 0-2.907 2.509h-.481c-.21 0-.38.192-.38.429s.17.429.38.429h.481A2.94 2.94 0 0 0 20 17.062a2.94 2.94 0 0 0-2.939-2.938z"/></g><defs><clipPath id="A"><path fill="#fff" d="M0 0h20v20H0z"/></clipPath></defs></svg>
